!!!OTL: 663. Nur ein Wandern ist das Leben.
!!!COM: L. Erk
!!!ODT: 1857
!!!ARE: Europa, Mitteleuropa, Deutschland
!!!SCT: B0663
!!!TXL: @@DE
!!!YEM: Copyright 1995, estate of Helmut Schaffrath.
**kern	**text
*ICvox	*
*Ivox	*
*clefG2	*
*M3/4	*
*k[b-]	*
*F:	*
!LO:TX:a:t=Langſam.	!
{8f	Nur
8g	ein
=1	=1
4a	Wandern
4a	.
8b-	iſt
8a	das
=2	=2
8aL	Le-
8gJ	.
4g}	-ben,
{8g	und
8a	wir
=3	=3
4.b-	wan-
16aL	-dern
16gJ	.
8.cc	auf
16b-	und
=4	=4
2a}	ab,
{8.dd	und
16cc	wir
=5	=5
8.ccL	hof-
16b-J	.
4b-	-ſen,
8.b-	ſeh-
16a	-nen,
=6	=6
8.aL	ſtre-
16gJ	.
4g}	-ben,
{8g	und
8g#	das
=7	=7
4.a	Ʒiel
16ddL	iſt
16ccJ	.
8.b-	nur
16b-	ein
=8	=8
2a}	Grab,
{8.cc	nur
16cc	ein
=9	=9
4.ff	Grab
16eeL	für
16ddJ	.
8cc	dich,
8b-	o
=10	=10
2a}	Herʒ,
{8g	dei-
8dd	-ne
=11	=11
4.cc	Freu-
16b-L	-de,
16aJ	.
8g	dei-
16ddL	-nen
16ccJ	.
=12	=12
2cc}	Schmerʒ,
{8f	dei-
8g	-ne
=13	=13
4a	Freu-
4a	-de,
8g	dei-
16b-L	-nen
16aJ	.
=14	=14
2f}	Schmerʒ.
==	==
!!!AGN: Wander -, Moral - Lied, Vergaenglichkeit
!!!ONB: ESAC (Essen Associative Code) Database: BOEHME
!!!AMT: simple triple
!!!AIN: vox
!!!EED: Helmut Schaffrath
!!!EEV: 1.0
!!!GTL: Didaktische Lieder: Betrachtungen, Vergleiche und Moralisationen
!!@@COMMENT:"Heinrich Hoffmann v. Fallersleben 1850. Die einfach ſchöne, dem edelſten Volkston ſich anſchließende Weiſe von 
!!L. Erk 1857 für gemiſchten Chor komponirt (ſ. Blätter und Blüthen JJ.
!!Nr. 25), iſt mit Erlaubniß des Rechtsvertreters von Erks Erben, Herrn C. Erk in Hannover, hier abgedruckt."
!!@@END:
!!!Text: H. von Fallersleben
!!!URL-scan: https://archive.org/details/BoehmeVtLieder1895/page/n517/mode/2up
!!!ENC: Anna Maria Matuszewska
!!!EEV: 2024/16/07
*-	*-
